X:342
T:Ikariotikos
Z:Jack Campin, http://www.campin.me.uk/
F:Jack Campin's Nine-Note Tunebook
% last edit 27-02-2013
G:Greek dance, accelerating slightly
M:2/4
L:1/16
Q:1/4=100
K:DMin
D2AA A2A2|GAGF E2A2|D2AA A2A2|GAGF E2A2:|
C2DE FEFG|E3F  EFD2|C2DE FEFG|E3F  EFD2:|

